Papirus/64x64/apps/choqok.svg

<?xml version="1.0" encoding="UTF-8" standalone="no"?>
<svg xmlns="http://www.w3.org/2000/svg" height="64" width="64" version="1">
 <defs>
  <filter id="filter3174" style="color-interpolation-filters:sRGB">
   <feGaussianBlur stdDeviation="1.71"/>
  </filter>
 </defs>
 <path style="opacity:0.2" d="m 60.344003,9.888014 c -0.431999,0.2518 -0.879998,0.476999 -1.327997,0.703199 -1.035998,1.623997 -2.413995,3.013594 -4.085992,3.999992 1.033998,-0.1218 2.043996,-0.3202 3.033994,-0.562599 1.045998,-1.205398 1.877996,-2.595395 2.379995,-4.140592 z M 62,14.684805 c -0.742399,0.324199 -1.511077,0.595938 -2.288995,0.847658 -1.165278,1.264517 -2.444996,2.422795 -3.851593,3.421793 0.02376,0.520059 0.03516,1.044938 0.03516,1.570317 0,0.13836 -0.0176,0.279259 -0.0196,0.417959 2.397995,-1.705996 4.477991,-3.833592 6.123988,-6.258387 z M 4.5781148,16.341001 c -0.026,0.3222 -0.0664,0.640199 -0.0664,0.968798 0,2.929395 1.0708578,5.606589 2.8281943,7.703185 0.8525983,0.214 1.7359965,0.353999 2.6483947,0.383999 -3.0285937,-1.991996 -5.0855896,-5.281989 -5.410189,-9.055182 z m 26.7079462,3.705793 c -0.0315,0.353479 -0.05468,0.708778 -0.05468,1.070318 0,0.250619 0.02794,0.495259 0.04298,0.742178 0.0928,0.0054 0.18436,0.015 0.27734,0.0196 -0.14058,-0.593679 -0.218,-1.208177 -0.26562,-1.832036 z m 24.577951,1.113278 c -0.321999,15.861968 -12.649974,33.839932 -34.99193,33.839932 -5.351989,0 -10.412379,-1.199998 -14.9459699,-3.315993 -0.3295993,0.012 -0.6553986,0.042 -0.988198,0.042 -0.993798,0 -1.974576,-0.06 -2.9375941,-0.172 C 7.4479091,54.994004 13.919696,57 20.872282,57 c 22.641955,0 35.02393,-18.463163 35.02393,-34.475931 0,-0.456119 -0.0134,-0.911238 -0.03126,-1.363277 z m -51.4538968,4.71799 c -0.00143,0.05052 0,0.10124 0,0.15234 0,4.333591 2.3213953,8.126984 5.7967888,10.269579 0.276499,0.0188 0.553958,0.03906 0.835938,0.03906 1.122598,0 2.209195,-0.148779 3.242193,-0.425779 -5.0001896,-0.989118 -8.8903818,-4.96519 -9.7031802,-9.95318 -0.055878,-0.02946 -0.1165217,-0.05176 -0.1718716,-0.08204 z m 4.3163913,12.242176 c 1.3164175,4.045392 4.7447905,7.138785 8.9999825,8.089784 0.864878,-0.513959 1.704296,-1.061018 2.495995,-1.671877 C 15.677293,44.455905 11.7545,41.93395 9.6913046,38.260757 9.3661453,38.225138 9.0445259,38.179858 8.7264665,38.120138 Z"/>
 <g transform="matrix(0.45238,0,0,0.43947,2.2857,19.906)" style="fill:#f53535">
  <g display="none" style="display:none">
   <rect rx="6" ry="6" height="85" width="86" y="7" x="5" style="opacity:0.9;filter:url(#filter3174)"/>
  </g>
 </g>
 <g transform="matrix(0.35714,0,0,0.35157,-1.1428,32.12454)" style="fill:#06567a">
  <g display="none" style="display:none">
   <rect rx="6" ry="6" height="85" width="86" y="7" x="5" style="opacity:0.9;filter:url(#filter3174)"/>
  </g>
 </g>
 <g transform="matrix(0.35714,0,0,0.35157,-1.1428,31.12454)" style="opacity:0.3">
  <g display="none" style="display:none">
   <rect rx="6" ry="6" height="85" width="86" y="7" x="5" style="opacity:0.9;filter:url(#filter3174)"/>
  </g>
 </g>
 <g transform="matrix(0.35714,0,0,0.35157,-1.1428,31.12454)" display="none" style="display:none">
  <rect rx="6" ry="6" height="85" width="86" y="7" x="5" style="opacity:0.9;filter:url(#filter3174)"/>
 </g>
 <g style="fill:#35b9f5" transform="matrix(0.71427857,0,0,0.70313859,-2.2854714,-1.7500805)">
  <g style="display:none" display="none">
   <rect style="opacity:0.9;filter:url(#filter3174)" rx="6" ry="6" height="85" width="86" y="7" x="5"/>
  </g>
  <path d="m 90,21.948 c -3.0904,1.3709 -6.4122,2.297 -9.8977,2.7136 3.5578,-2.1328 6.2908,-5.51 7.5772,-9.5344 -3.3302,1.9753 -7.0182,3.4091 -10.944,4.1819 -3.1433,-3.3495 -7.6222,-5.4419 -12.579,-5.4419 -9.5172,0 -17.234,7.7158 -17.234,17.233 0,1.3507 0.15245,2.6662 0.44645,3.9274 -14.323,-0.719 -27.021,-7.58 -35.521,-18.006 -1.4834,2.5452 -2.3335,5.5054 -2.3335,8.6638 0,5.9791 3.0425,11.254 7.6667,14.344 -2.8249,-0.08949 -5.4823,-0.86478 -7.8057,-2.1554 -0.002,0.07186 -0.002,0.14405 -0.002,0.21672 0,8.3496 5.9405,15.314 13.824,16.899 -1.4461,0.39395 -2.9686,0.60437 -4.5402,0.60437 -1.1105,0 -2.1899,-0.10836 -3.2424,-0.30912 2.1932,6.8464 8.5575,11.829 16.099,11.968 -5.8981,4.6225 -13.329,7.3777 -21.403,7.3777 -1.391,0 -2.7628,-0.08191 -4.111,-0.24109 7.6268,4.8901 16.685,7.7431 26.418,7.7431 31.699,0 49.033,-26.26 49.033,-49.034 0,-0.74718 -0.01676,-1.4902 -0.05002,-2.2298 3.3667,-2.4293 6.2883,-5.4642 8.5987,-8.9204 z"/>
 </g>
 <g transform="matrix(0.71427857,0,0,0.70313859,-2.2854714,-1.7500805)">
  <g style="display:none;fill:#35b9f5" display="none">
   <rect style="opacity:0.9;filter:url(#filter3174)" rx="6" ry="6" height="85" width="86" y="7" x="5"/>
  </g>
 </g>
 <g transform="matrix(0.71427857,0,0,0.70313859,-2.2854714,-0.75008048)">
  <g display="none" style="display:none;fill:#35b9f5">
   <rect x="5" y="7" width="86" height="85" ry="6" rx="6" style="opacity:0.9;filter:url(#filter3174)"/>
  </g>
 </g>
 <g transform="matrix(0.71427857,0,0,0.70313859,-2.2854714,-1.7500805)" style="fill:#ffffff;fill-opacity:1;opacity:0.2">
  <g display="none" style="display:none;fill:#ffffff;fill-opacity:1">
   <rect x="5" y="7" width="86" height="85" ry="6" rx="6" style="opacity:0.9;filter:url(#filter3174);fill:#ffffff;fill-opacity:1"/>
  </g>
  <path style="fill:#ffffff;fill-opacity:1" d="M 43.541016 8 C 36.743084 8 31.230469 13.425277 31.230469 20.117188 C 31.230469 20.275708 31.251781 20.428859 31.257812 20.585938 C 31.542537 14.142491 36.925372 9 43.541016 9 C 47.081552 9 50.280199 10.471009 52.525391 12.826172 C 55.136656 12.320157 57.590434 11.396594 59.837891 10.152344 C 60.026244 9.7405766 60.200619 9.3214951 60.341797 8.8867188 C 57.963106 10.275628 55.329505 11.282786 52.525391 11.826172 C 50.280199 9.4710092 47.081552 8 43.541016 8 z M 6.1777344 10.21875 C 5.1181735 12.008378 4.5097656 14.089754 4.5097656 16.310547 C 4.5097656 16.485945 4.5198542 16.658432 4.5273438 16.832031 C 4.6081517 14.79149 5.1948887 12.878804 6.1777344 11.21875 C 12.249102 18.549673 21.318216 23.37335 31.548828 23.878906 C 31.470422 23.547804 31.420906 23.206283 31.371094 22.865234 C 21.213691 22.312594 12.213683 17.506906 6.1777344 10.21875 z M 62 13.681641 C 60.325183 14.413002 58.554931 14.963048 56.710938 15.314453 C 56.158281 15.789631 55.562181 16.216596 54.929688 16.589844 C 57.029165 16.34282 59.039186 15.826931 60.943359 15.097656 C 61.308217 14.635446 61.669258 14.170645 62 13.683594 L 62 13.681641 z M 55.878906 20.9375 C 55.871362 20.942871 55.864972 20.949715 55.857422 20.955078 C 55.873477 21.306525 55.875627 21.659868 55.880859 22.013672 C 55.883414 21.850486 55.892578 21.686139 55.892578 21.523438 C 55.892578 21.327155 55.882239 21.132993 55.878906 20.9375 z M 4.4121094 24.880859 C 4.4106808 24.931387 4.4101562 24.982106 4.4101562 25.033203 C 4.4101562 25.32504 4.4286 25.611759 4.4492188 25.898438 C 6.1002191 26.794188 7.9831078 27.334014 9.9863281 27.396484 C 9.4727558 27.058655 8.9979906 26.671871 8.5429688 26.263672 C 7.0636712 26.044205 5.6692928 25.568318 4.4121094 24.880859 z M 8.7246094 37.123047 C 8.8419931 37.483763 8.9809195 37.834569 9.1308594 38.179688 C 9.7546965 38.276473 10.388809 38.339844 11.041016 38.339844 C 12.163576 38.339844 13.250285 38.191064 14.283203 37.914062 C 13.546399 37.768236 12.835228 37.55421 12.152344 37.285156 C 11.78581 37.317489 11.416109 37.339844 11.041016 37.339844 C 10.247809 37.339844 9.4763876 37.264209 8.7246094 37.123047 z M 18.947266 46.441406 C 14.95882 49.136392 10.138285 50.726562 4.9355469 50.726562 C 3.9419854 50.726562 2.9629904 50.668566 2 50.556641 C 2.6356261 50.957831 3.288566 51.334034 3.9511719 51.695312 C 4.2787726 51.707958 4.6047905 51.724609 4.9355469 51.724609 C 10.702632 51.724609 16.011723 49.787368 20.224609 46.537109 C 19.792287 46.529265 19.36765 46.492041 18.947266 46.441406 z" transform="matrix(1.400014,0,0,1.4221947,3.199692,2.4889553)"/>
 </g>
 <g style="opacity:0.2;fill:#ffffff;fill-opacity:1" transform="matrix(0.71427857,0,0,0.70313859,-2.2854714,-0.75065681)">
  <g style="display:none;fill:#ffffff;fill-opacity:1" display="none">
   <rect style="opacity:0.9;fill:#ffffff;fill-opacity:1;filter:url(#filter3174)" rx="6" ry="6" height="85" width="86" y="7" x="5"/>
  </g>
 </g>
</svg>

<?xml version="1.0" encoding="UTF-8" standalone="no"?>
<svg xmlns="http://www.w3.org/2000/svg" height="64" width="64" version="1">
 <path d="m62 13.682c-2.2074.96393-4.5801 1.6151-7.0697 1.908 2.5413-1.4997 4.4934-3.8743 5.4122-6.704-2.3787 1.3889-5.0129 2.3971-7.8171 2.9405-2.2452-2.3552-5.4444-3.8264-8.9849-3.8264-6.7979 0-12.31 5.4253-12.31 12.117 0 .94973.10889 1.8747.31889 2.7615-10.23-.505-19.3-5.33-25.372-12.661-1.0596 1.7896-1.6668 3.8711-1.6668 6.0919 0 4.2041 2.1732 7.9131 5.4762 10.086-2.0178-.06292-3.9159-.60806-5.5754-1.5155-.00143.05053-.00143.10129-.00143.15238 0 5.8709 4.2432 10.768 9.8742 11.882-1.0329 0.277-2.1204.42496-3.243.42496-.79321 0-1.5642-.07619-2.316-.21736 1.5666 4.814 6.1124 8.3174 11.499 8.4152-4.2129 3.2503-9.5206 5.1875-15.288 5.1875-.99356 0-1.9734-.0576-2.9364-.16952 5.4477 3.4384 11.918 5.4445 18.87 5.4445 22.642 0 35.023-18.464 35.023-34.478 0-.52537-.01197-1.0478-.03573-1.5679 2.4048-1.7081 4.4916-3.8421 6.1419-6.2723z" style="stroke-width:.70869;fill:#35b9f5"/>
 <path style="opacity:.2;stroke-width:.70869;fill:#ffffff" d="m43.541 8c-6.798 0-12.311 5.425-12.311 12.117 0 .159.022.312.028.469.285-6.444 5.667-11.586 12.283-11.586 3.541 0 6.739 1.473 8.984 3.828 2.612-.506 5.065-1.431 7.313-2.676.188-.4114.363-.8305.504-1.2653-2.379 1.3893-5.012 2.3963-7.817 2.9393-2.245-2.355-5.443-3.826-8.984-3.826zm-37.363 2.219c-1.0595 1.789-1.6679 3.871-1.6679 6.092 0 .175.0101.347.0175.521.0809-2.041.6676-3.953 1.6504-5.613 6.0713 7.331 15.14 12.154 25.371 12.66-.079-.331-.128-.673-.178-1.014-10.157-.552-19.157-5.358-25.193-12.646zm55.822 3.463c-1.675.731-3.445 1.281-5.289 1.632-.553.476-1.149.905-1.781 1.278 2.098-.247 4.108-.764 6.011-1.492.366-.463.728-.929 1.059-1.416v-.002zm-6.121 7.256c-.008.005-.014.012-.022.017.016.351.019.705.024 1.059.002-.164.012-.328.012-.491 0-.196-.011-.390-.014-.585zm-51.467 3.943c-.0014.050-.0019.101-.0019.152 0 .292.0184.579.0390.865 1.651.896 3.5339 1.436 5.5371 1.498-.5136-.337-.9882-.724-1.4433-1.132-1.4793-.220-2.8737-.696-4.1309-1.383zm4.3125 12.242c.1176.361.2560.713.4063 1.059.6237.096 1.2581.158 1.9101.158 1.123 0 2.209-.147 3.242-.424-.737-.146-1.449-.361-2.133-.631-.366.032-.735.055-1.109.055-.793 0-1.5646-.076-2.3164-.217zm10.222 9.318c-3.988 2.695-8.809 4.286-14.012 4.286-.9930 0-1.972-.058-2.935-.170.6364.401 1.2897.779 1.9531 1.14.3270.013.6523.030.9824.030 5.7675 0 11.076-1.938 15.29-5.188-.434-.008-.858-.047-1.279-.098z"/>
 <path style="opacity:.2;stroke-width:.70869" d="m60.342 9.8867c-.16359.09552-.33793.17373-.50391.26563-1.0375 2.2684-2.7573 4.1701-4.9082 5.4395.60068-.07068 1.1949-.16560 1.7812-.27734 1.6678-1.434 2.9407-3.3023 3.6309-5.4277zm1.658 4.7953c-.34592.15106-.70279.28050-1.0566.41602-1.4556 1.844-3.1631 3.4916-5.0859 4.8574.01488.32575.0159.65466.02148.98242 2.395-1.706 4.476-3.832 6.121-6.254zm-57.473 2.1504c-.00631.15927-.017578.31772-.017578.47852 0 3.5514 1.5626 6.7379 4.0352 8.9551.47285.07008.95284.11562 1.4414.13086-3.1652-2.082-5.287-5.576-5.4587-9.564zm26.73 3.7539c-.0078.17754-.02734.35180-.02734.53125 0 .59513.05702 1.1757.14062 1.748.0596.0032.11805.01072.17773.01367-.17495-.73878-.26091-1.509-.29102-2.293zm24.623 1.4277c-.248 15.897-12.599 33.988-35.011 33.988-6.14 0-11.9-1.57-16.916-4.305-.6570-.025-1.31-.066-1.953-.140 5.4477 3.438 11.917 5.443 18.869 5.443 22.642 0 35.024-18.463 35.024-34.477 0-.17076-.0092-.33960-.01172-.50977zm-51.468 3.867c-.00143.05053-.00195.10125-.00195.15234 0 5.1019 3.2054 9.4642 7.7402 11.252.73109-.06438 1.4444-.18453 2.1328-.36914-5.3516-1.0592-9.4405-5.5364-9.834-11.018-.011981-.0065-.025154-.01104-.037109-.01758zm4.3125 12.242c1.441 4.4283 5.406 7.7408 10.225 8.3203.43217-.29206.86355-.58656 1.2754-.90430-4.9825-.0904-9.2423-3.0976-11.094-7.3574-.13493-.02093-.27256-.03349-.40625-.05859z"/>
</svg>
